src/static/icon.svg

<svg height="150" viewBox="0 0 150 150" width="150" xmlns="http://www.w3.org/2000/svg" xmlns:xlink="http://www.w3.org/1999/xlink"><linearGradient id="a" x1="50%" x2="50%" y1="-45.146761%" y2="26.678074%"><stop offset="0" stop-color="#2a6cbe"/><stop offset=".386877111" stop-color="#2062bc"/><stop offset=".49181799" stop-color="#1f5fbc"/><stop offset=".66583087" stop-color="#1c5abd"/><stop offset=".853542019" stop-color="#1956bc"/><stop offset="1" stop-color="#1851be"/></linearGradient><g fill="none" fill-rule="evenodd"><path d="m0 0h150v150h-150z" fill="#fff"/><path d="m150 0v150h-150v-150zm-68.7792205 36.6174208h-4.1918295c-1.1045695 0-2 .8954305-2 2l-.0000443 26.0963006c-4.8836662-4.5419585-11.5566046-7.240819-19.2021886-7.240819-15.8824634 0-27.7367657 11.815885-27.7367657 27.6082698s11.8543023 27.6082698 27.7367657 27.6082698c11.5928938 0 20.9495546-6.205015 25.2214326-15.6320203.6449775.7987844 1.3355544 1.5579048 2.0686388 2.2742644 4.9366991 4.8240719 11.8010636 7.7089889 19.6489275 7.7089889 15.997553 0 27.736765-11.8158848 27.736765-27.6082696s-11.739212-27.6082698-27.736765-27.6082698c-7.1334551 0-13.4543208 2.3835834-18.25352 6.4404726-.2922572.2470526 0-8.7134286 0-17.3567637 0-2.9683951-2.1979202-4.2904237-3.2914165-4.2904237zm-25.6504782 32.4020604c9.6334487 0 16.4086214 7.1473136 16.4086214 16.4086214 0 9.059975-6.7751727 16.4086214-16.4086214 16.4086214s-16.4086214-7.3486464-16.4086214-16.4086214c0-9.2613078 6.7751727-16.4086214 16.4086214-16.4086214zm47.8270877-4.6099003c9.633449 0 16.408621 7.1473136 16.408621 16.4086214 0 9.059975-6.775172 16.4086214-16.408621 16.4086214-9.6334488 0-16.4086215-7.3486464-16.4086215-16.4086214 0-9.2613078 6.7751727-16.4086214 16.4086215-16.4086214zm-70.1552244-22.2986445h-3.2543799c-1.0069146 0-1.8231802.8162656-1.8231802 1.8231802v26.9298172c0 .0398293.0207301.0767875.054718.0975528.053877.0329168.1242372.0159252.4862704.1631258 1.598163-2.6158156 2.9731081-4.5491478 4.1248352-5.7999966.7300892-.7929233 2.1038257-2.0227357 4.1212096-3.6894374.3449142-.2849577.5446248-.709004.5446139-1.1564039v-14.113751c0-2.3494674-1.9046196-4.2540871-4.254087-4.2540871z" fill="url(#a)" fill-rule="nonzero"/></g></svg>

<?xml version="1.0" encoding="UTF-8"?>
<svg width="150px" height="150px" viewBox="0 0 150 150" version="1.1" xmlns="http://www.w3.org/2000/svg" xmlns:xlink="http://www.w3.org/1999/xlink">
    <!-- Generator: Sketch 57 (83077) - https://sketch.com -->
    <title>icon</title>
    <desc>Created with Sketch.</desc>
    <defs>
        <linearGradient x1="50%" y1="-45.146761%" x2="50%" y2="26.6780736%" id="linearGradient-1">
            <stop stop-color="#2A6CBE" offset="0%"></stop>
            <stop stop-color="#2062BC" offset="38.6877111%"></stop>
            <stop stop-color="#1F5FBC" offset="49.181799%"></stop>
            <stop stop-color="#1C5ABD" offset="66.583087%"></stop>
            <stop stop-color="#1956BC" offset="85.3542019%"></stop>
            <stop stop-color="#1851BE" offset="100%"></stop>
        </linearGradient>
    </defs>
    <g id="icon" stroke="none" stroke-width="1" fill="none" fill-rule="evenodd">
        <rect fill="#FFFFFF" x="0" y="0" width="150" height="150"></rect>
        <path d="M150,1.70530257e-13 L150,150 L0,150 L0,1.70530257e-13 L150,1.70530257e-13 Z M81.2207795,36.6174208 L77.02895,36.6174208 C75.9243805,36.6174208 75.02895,37.5128513 75.02895,38.6174208 L75.02895,38.6174208 L75.0289057,64.7137214 C70.1452395,60.1717629 63.4723011,57.4729024 55.8267171,57.4729024 C39.9442537,57.4729024 28.0899514,69.2887874 28.0899514,85.0811722 C28.0899514,100.873557 39.9442537,112.689442 55.8267171,112.689442 C67.4196109,112.689442 76.7762717,106.484427 81.0481497,97.0574217 C81.6931272,97.8562061 82.3837041,98.6153265 83.1167885,99.3316861 C88.0534876,104.155758 94.9178521,107.040675 102.765716,107.040675 C118.763269,107.040675 130.502481,95.2247902 130.502481,79.4324054 C130.502481,63.6400206 118.763269,51.8241356 102.765716,51.8241356 C95.6322609,51.8241356 89.3113952,54.207719 84.512196,58.2646082 C84.2199388,58.5116608 84.512196,49.5511796 84.512196,40.9078445 C84.512196,37.9394494 82.3142758,36.6174208 81.2207795,36.6174208 L81.2207795,36.6174208 Z M55.5703013,69.0194812 C65.20375,69.0194812 71.9789227,76.1667948 71.9789227,85.4281026 C71.9789227,94.4880776 65.20375,101.836724 55.5703013,101.836724 C45.9368526,101.836724 39.1616799,94.4880776 39.1616799,85.4281026 C39.1616799,76.1667948 45.9368526,69.0194812 55.5703013,69.0194812 Z M103.397389,64.4095809 C113.030838,64.4095809 119.80601,71.5568945 119.80601,80.8182023 C119.80601,89.8781773 113.030838,97.2268237 103.397389,97.2268237 C93.7639402,97.2268237 86.9887675,89.8781773 86.9887675,80.8182023 C86.9887675,71.5568945 93.7639402,64.4095809 103.397389,64.4095809 Z M33.2421646,42.1109364 L29.9877847,42.1109364 C28.9808701,42.1109364 28.1646045,42.927202 28.1646045,43.9341166 L28.1646045,43.9341166 L28.1646045,70.8639338 C28.1646045,70.9037631 28.1853346,70.9407213 28.2193225,70.9614866 C28.2731995,70.9944034 28.3435597,70.9774118 28.7055929,71.1246124 C30.3037559,68.5087968 31.678701,66.5754646 32.8304281,65.3246158 C33.5605173,64.5316925 34.9342538,63.3018801 36.9516377,61.6351784 C37.2965519,61.3502207 37.4962625,60.9261744 37.4962516,60.4787745 L37.4962516,60.4787745 L37.4962516,46.3650235 C37.4962516,44.0155561 35.591632,42.1109364 33.2421646,42.1109364 L33.2421646,42.1109364 Z" id="bb" fill="url(#linearGradient-1)" fill-rule="nonzero"></path>
    </g>
</svg>
